flaticon/arrows/drag-8.svg

<svg xmlns="http://www.w3.org/2000/svg" width="32" height="32" viewBox="0 0 24 24">
    <path d="M 19.199219 14.398438 C 18.035156 14.398438 16.964844 14.820312 16.128906 15.511719 L 1.488281 0.871094 L 8.527344 0.871094 C 8.769531 0.871094 8.964844 0.675781 8.964844 0.4375 C 8.964844 0.195312 8.769531 0 8.527344 0 L 0.4375 0 C 0.378906 0 0.324219 0.0117188 0.269531 0.0351562 C 0.164062 0.078125 0.078125 0.164062 0.0351562 0.269531 C 0.0117188 0.324219 0 0.378906 0 0.4375 L 0 8.527344 C 0 8.769531 0.195312 8.964844 0.4375 8.964844 C 0.675781 8.964844 0.871094 8.769531 0.871094 8.527344 L 0.871094 1.488281 L 15.511719 16.128906 C 14.820312 16.964844 14.398438 18.035156 14.398438 19.199219 C 14.398438 21.847656 16.554688 24 19.199219 24 C 21.847656 24 24 21.847656 24 19.199219 C 24 16.554688 21.847656 14.398438 19.199219 14.398438 Z M 19.199219 23.128906 C 17.035156 23.128906 15.273438 21.367188 15.273438 19.199219 C 15.273438 17.035156 17.035156 15.273438 19.199219 15.273438 C 21.367188 15.273438 23.128906 17.035156 23.128906 19.199219 C 23.128906 21.367188 21.367188 23.128906 19.199219 23.128906 Z M 19.199219 23.128906"/>
</svg>

<svg xmlns="http://www.w3.org/2000/svg" width="32" height="32" viewBox="0 0 24 24">
    <path d="M19.2 14.398a4.808 4.808 0 0 0-3.071 1.114L1.489.872h7.038a.436.436 0 1 0 0-.872H.437A.418.418 0 0 0 .27.035.43.43 0 0 0 .035.27.418.418 0 0 0 0 .437v8.09a.436.436 0 0 0 .871 0V1.488l14.64 14.64a4.808 4.808 0 0 0-1.113 3.071c0 2.649 2.157 4.801 4.801 4.801C21.848 24 24 21.848 24 19.2c0-2.645-2.152-4.802-4.8-4.802zm0 8.73a3.932 3.932 0 0 1-3.927-3.929 3.931 3.931 0 0 1 3.926-3.926 3.932 3.932 0 0 1 3.93 3.926 3.933 3.933 0 0 1-3.93 3.93zm0 0"/>
</svg>
